X:
T:L'Intention
C:Laurence Beaudry
N:© Laurence Beaudry, Reproduced with permission
Z:robin.beech@mcgill.ca
R:reel
M:4/4
L:1/8
K:G
GBdg ecAG | FAdA BGDB, | CEGc BGDB, | ecag fdcA | 
GBdg ecAG | FAdA BGDB, |1 CEGc B,DGB | AGFE DEFD :|2 
CEGc B,DGB | AGFA G4 |: Bcdc BGAB | cedf gdBG | 
cecA Bdgf | ecAG FADA | Bdgf ecag | fdab gdBG |1
cdec ABcA | FGFE D4 :|2 ceac Bdgd | fdef [g4B4] |]

